X:1
T:Ne dubita
T:Daniel Friderici
T:Source : Bicinia sacra---Rostock---J.Richelius---1642. Editor : André Vierendeels (07/07/17).
T:Notes : Original clefs : C1, C1 Editorial accidentals above the staff 
T:Ne dubita
T:©
T:©
C:Daniel Friderici
Z:©
%%score [ 1 2 ]
L:1/8
Q:1/4=120
M:2/2
K:C
V:1 treble nm="Soprano 1" snm="S 1"
V:2 treble nm="Soprano 2" snm="S 2"
V:1
 D8 | z2 D2 F2 G2 | A8 | z2 D2 F2 G2 | A8 | z2 A2 A2 B2 | c8 | z2 AB c4 | z2 AB c2 A2 | B2 c2 d4 | %10
w: Ne,|ne du- bi-|ta,|ne du- bi-|ta,|ne du- bi-|ta,|quo- ti- es,|quo- ti- es Nu-|men Cae- le-|
 c2 c2 B3 A | ^G2 A4 G2 | A8 :: c3 c c2 B2 | A6 G2 | F3 F E4 | A3 A A2 G2 | F6 E2 | D3 D C2 c2- | %19
w: ste pre- ca- *||ris,|im- pe- trat in|Chri- sti|No- mi- ne,|im- pe- trat in|Chri- sti|No- mi- ne, No-|
 c2 B2 c2 G2- | GABc d2 D2- | DEFG A2 DE | FGAB c2 A2 | d4 A4- | A2 c4 B2 | c4 A4 | _B6 A2 | %27
w: * mi- ne cun-|* * * * * cta,|_ _ _ _ _ cun- *|* * * * * cta|Fi- des,|_ Fi- *|* des,|cun- cta|
 G6 F2 | E2 D2 E4 | D8 :| %30
w: Fi- *||des.|
V:2
 z8 | D8 | z2 D2 F2 G2 | A8 | z2 A2 A2 B2 | c8 | z2 A2 A2 B2 | c4 z2 AB | %8
w: |Ne,|ne du- bi-|ta,|ne du- bi-|ta,|ne du- bi-|ta, quo- ti-|
"^-natural""^-natural" ^c2 cd e2 e2 | d2 B2 A4 | A2 e2 d3 c | B2 A2 B4 | A8 :: z8 | c3 c c2 B2 | %15
w: es, quo- ti- es Nu-|men Cae- le-|ste pre- ca- *||ris,||im- pe- trat in|
 A6 G2 | F3 F E4 | A3 A A2 G2 | F6 E2 | D3 D C4- | C2 G3 ABc | d2 D3 EFG | A2 FG AB c2 | %23
w: Chri- sti|No- mi- ne,|im- pe- trat in|Chri- sti|No- mi- ne|_ cun- * * *|* cta, _ _ _|_ cun- * * * *|
 G4 z2 c2- | c2 A2 d4 | A4 c2 F2 | G6 F2 | E6 D2 | ^C2 D4 C2 | D8 :| %30
w: cta, cun-|* cta Fi-|des, cun- cta|Fi- *|||des.|

